assets/images/icon/event-icons/party.svg

<svg width="99" height="122" viewBox="0 0 99 122" fill="none" xmlns="http://www.w3.org/2000/svg">
<g opacity="0.3">
<path d="M49.9123 80.8919C48.3048 80.8919 46.8343 80.155 45.8692 78.8703L2.01424 20.3949C0.856727 18.8526 0.674134 16.8245 1.53819 15.1029C2.39899 13.3813 4.13362 12.3086 6.05737 12.3086H93.7673C95.6943 12.3086 97.4256 13.3781 98.2864 15.1029C99.1472 16.8278 98.9646 18.8526 97.8104 20.3949L53.9554 78.867C52.9936 80.155 51.5198 80.8919 49.9123 80.8919ZM6.05737 15.8985C5.23896 15.8985 4.86725 16.4658 4.74661 16.7104C4.62597 16.9549 4.39447 17.5908 4.88356 18.2461L48.7385 76.7183C49.0189 77.09 49.446 77.3052 49.9123 77.3052C50.3786 77.3052 50.8057 77.09 51.0861 76.7183L94.9411 18.2461C95.4334 17.5908 95.2019 16.9549 95.078 16.7104C94.9574 16.4658 94.5857 15.8985 93.7673 15.8985H6.05737Z" fill="#00003F"/>
<path d="M47.3588 121.268C46.3675 121.268 45.5654 120.466 45.5654 119.474V78.5539C45.5654 77.5627 46.3675 76.7606 47.3588 76.7606C48.35 76.7606 49.1521 77.5627 49.1521 78.5539V119.474C49.1521 120.466 48.35 121.268 47.3588 121.268Z" fill="#00003F"/>
<path d="M52.4672 121.268C51.4759 121.268 50.6738 120.466 50.6738 119.474V78.5539C50.6738 77.5627 51.4759 76.7606 52.4672 76.7606C53.4584 76.7606 54.2605 77.5627 54.2605 78.5539V119.474C54.2605 120.466 53.4551 121.268 52.4672 121.268Z" fill="#00003F"/>
<path d="M67.7634 121.92H32.0599C31.0687 121.92 30.2666 121.118 30.2666 120.126C30.2666 119.135 31.0687 118.333 32.0599 118.333H67.7634C68.7546 118.333 69.5567 119.135 69.5567 120.126C69.5567 121.118 68.7546 121.92 67.7634 121.92Z" fill="#00003F"/>
<path d="M62.7915 33.3948H20.7298C19.7386 33.3948 18.9365 32.5926 18.9365 31.6014C18.9365 30.6102 19.7386 29.8081 20.7298 29.8081H62.7915C63.7827 29.8081 64.5848 30.6102 64.5848 31.6014C64.5848 32.5926 63.7827 33.3948 62.7915 33.3948Z" fill="#00003F"/>
<path d="M79.3128 33.3948H75.6185C74.6273 33.3948 73.8252 32.5926 73.8252 31.6014C73.8252 30.6102 74.6273 29.8081 75.6185 29.8081H79.3128C80.304 29.8081 81.1061 30.6102 81.1061 31.6014C81.1061 32.5926 80.304 33.3948 79.3128 33.3948Z" fill="#00003F"/>
<path d="M86.0627 11.2782C85.691 11.2782 85.316 11.1641 84.9965 10.9261C84.2009 10.3359 84.0346 9.21099 84.6248 8.41866L90.3373 0.72693C90.9275 -0.0686539 92.0524 -0.234944 92.8447 0.355223C93.637 0.94539 93.8066 2.07029 93.2164 2.86262L87.5039 10.5544C87.1517 11.0271 86.6105 11.2782 86.0627 11.2782Z" fill="#00003F"/>
<path d="M57.6826 49.2641C57.3076 49.2641 56.9294 49.1467 56.6066 48.9021C55.8143 48.3054 55.6578 47.1838 56.2512 46.3915L77.5005 18.1613C78.0972 17.369 79.2188 17.2125 80.0111 17.8059C80.8034 18.4026 80.96 19.5242 80.3665 20.3165L59.1173 48.5467C58.7651 49.0163 58.2271 49.2641 57.6826 49.2641Z" fill="#00003F"/>
<path d="M44.8583 66.4377C44.4833 66.4377 44.1084 66.3203 43.7856 66.079C42.9932 65.4856 42.8302 64.3607 43.4236 63.5683L45.9245 60.2262C46.5179 59.4339 47.6428 59.2709 48.4352 59.8643C49.2275 60.4577 49.3905 61.5826 48.7971 62.375L46.2962 65.7171C45.9441 66.1866 45.4028 66.4377 44.8583 66.4377Z" fill="#00003F"/>
<path d="M50.6255 63.5715C49.1322 63.5715 47.7366 63.1411 46.5498 62.2934C44.7141 60.9859 43.6544 58.873 43.5664 56.3526C43.4848 54.0082 44.2641 51.5562 45.7672 49.4532C47.2671 47.3501 49.3311 45.8144 51.5776 45.1296C53.9905 44.3927 56.3316 44.709 58.1673 46.0165C60.003 47.324 61.0627 49.4369 61.1507 51.9573C61.2322 54.3017 60.453 56.7536 58.9531 58.8567C57.4532 60.9598 55.3893 62.4955 53.1427 63.1803C52.2852 63.4411 51.4407 63.5715 50.6255 63.5715ZM54.0752 48.3283C53.6122 48.3283 53.1264 48.4033 52.6243 48.5565C51.1309 49.013 49.7321 50.0694 48.6887 51.5334C47.6453 52.9974 47.0976 54.6636 47.153 56.2254C47.2019 57.6079 47.7269 58.7263 48.6366 59.3751C49.543 60.0207 50.7723 60.1577 52.0961 59.7534C53.5894 59.2969 54.9882 58.2405 56.0316 56.7765C57.075 55.3125 57.6228 53.6463 57.5673 52.0845C57.5184 50.702 56.9935 49.5836 56.087 48.9347C55.5197 48.5337 54.8317 48.3283 54.0752 48.3283Z" fill="#00003F"/>
</g>
</svg>

<svg width="99" height="122" fill="none" xmlns="http://www.w3.org/2000/svg"><g opacity=".3" fill="#00003F"><path d="M49.912 80.892a5.011 5.011 0 0 1-4.043-2.022L2.014 20.395a5.017 5.017 0 0 1-.476-5.292 5.03 5.03 0 0 1 4.52-2.794h87.71a5.02 5.02 0 0 1 4.518 2.794 5.03 5.03 0 0 1-.476 5.292L53.955 78.867a5 5 0 0 1-4.043 2.025ZM6.057 15.899c-.818 0-1.19.567-1.31.811-.121.245-.353.88.137 1.536l43.855 58.472c.28.372.707.587 1.173.587a1.46 1.46 0 0 0 1.174-.587l43.855-58.472c.492-.655.26-1.291.137-1.536a1.425 1.425 0 0 0-1.31-.812H6.057Z"/><path d="M47.359 121.268a1.792 1.792 0 0 1-1.794-1.794v-40.92a1.792 1.792 0 1 1 3.587 0v40.92c0 .992-.802 1.794-1.793 1.794Zm5.108 0a1.792 1.792 0 0 1-1.793-1.794v-40.92a1.792 1.792 0 1 1 3.587 0v40.92c0 .992-.806 1.794-1.794 1.794Z"/><path d="M67.763 121.92H32.06a1.792 1.792 0 1 1 0-3.587h35.703a1.792 1.792 0 1 1 0 3.587Zm-4.972-88.525H20.73a1.792 1.792 0 1 1 0-3.587h42.062a1.792 1.792 0 1 1 0 3.587Zm16.522 0h-3.695a1.792 1.792 0 1 1 0-3.587h3.695a1.792 1.792 0 1 1 0 3.587Zm6.75-22.117a1.792 1.792 0 0 1-1.438-2.86l5.712-7.69a1.792 1.792 0 1 1 2.88 2.136l-5.713 7.691a1.794 1.794 0 0 1-1.441.724Zm-28.38 37.986a1.794 1.794 0 0 1-1.431-2.873L77.5 18.162a1.794 1.794 0 0 1 2.867 2.155l-21.25 28.23a1.79 1.79 0 0 1-1.434.718ZM44.858 66.438a1.795 1.795 0 0 1-1.435-2.87l2.502-3.342a1.795 1.795 0 0 1 2.872 2.149l-2.5 3.342a1.8 1.8 0 0 1-1.439.72Z"/><path d="M50.626 63.572c-1.494 0-2.89-.43-4.076-1.279-1.836-1.307-2.896-3.42-2.984-5.94-.081-2.345.698-4.797 2.201-6.9 1.5-2.103 3.564-3.639 5.81-4.323 2.413-.737 4.755-.421 6.59.886 1.836 1.308 2.896 3.42 2.984 5.941.081 2.345-.698 4.797-2.198 6.9-1.5 2.103-3.564 3.639-5.81 4.323a8.653 8.653 0 0 1-2.517.392Zm3.45-15.244c-.464 0-.95.075-1.452.228-1.493.457-2.892 1.513-3.935 2.977-1.044 1.464-1.591 3.13-1.536 4.692.049 1.383.574 2.501 1.484 3.15.906.646 2.135.783 3.46.378 1.492-.456 2.891-1.513 3.935-2.977 1.043-1.464 1.59-3.13 1.535-4.692-.049-1.382-.574-2.5-1.48-3.15-.567-.4-1.255-.606-2.012-.606Z"/></g></svg>
